packages/calcite-ui-icons/icons/parcel-32.svg

<?xml version="1.0" encoding="UTF-8"?><svg id="icons" xmlns="http://www.w3.org/2000/svg" viewBox="0 0 32 32"><path d="M14,14h2v2h-2v-2ZM29,5v11h1v3h-1.59277l-8.40723,8.40723v2.59277h-3v-1H5v1h-3v-3h1V5h-1v-3h3v1h22v-1h3v3h-1ZM28,5h-1v-1H5v1h-1v22h1v1h12v-1h1.99316l8.00684-8.00684v-2.99316h1V5Z"/><rect y="0" width="32" height="32" style="fill:none;"/></svg>

<svg xmlns="http://www.w3.org/2000/svg" viewBox="0 0 32 32"><path d="M14 14h2v2h-2v-2zm15-9v11h1v3h-1.593L20 27.407V30h-3v-1H5v1H2v-3h1V5H2V2h3v1h22V2h3v3h-1zm-1 0h-1V4H5v1H4v22h1v1h12v-1h1.993L27 18.993V16h1V5z"/><path fill="none" d="M0 0h32v32H0z"/></svg>
